X:1
T:I Will Trust
T:I Will Trust
T:Henry Grattan Guinness
T:Henry Grattan Guinness (1835-1910)
T:Public Domain Courtesy of the Cyber Hymnal™
T:Public Domain Courtesy of the Cyber Hymnal™
C:Henry Grattan Guinness
Z:Public Domain
Z:Courtesy of the Cyber Hymnal™
%%score ( 1 2 ) ( 3 4 )
L:1/8
Q:1/4=97
M:3/4
K:D
V:1 treble 
V:2 treble 
V:3 bass 
V:4 bass 
V:1
 [DF][EG] | [FA]3 [Fd] [^Ec][EB] | [FA]4 [DF][DG] | E4 [CE][CF] | D4 [DF][EG] | %5
w: 1.~“It is|fin- ished!” Je- sus|cries, I will|trust! I will|trust! As He|
w: 2.~Je- sus,|hear my cry to|Thee, I will|trust! I will|trust! Thou a-|
w: 3.~Where- fore|should I doubt or|fear? I will|trust! I will|trust! Thou, my|
 [FA]3 [Fd] [^Ec][EB] | [FA]4 [DF][DG] | E4 [CE][CF] | D4 [A,C][B,D] | [CE]3 [EA] [EB][Ec] | %10
w: bows His head and|dies, I will|trust! I will|trust! All my|load on Him was|
w: lone art all my|plea; I will|trust! I will|trust! In Thy|hands I leave my|
w: Lord, art ev- er|near; I will|trust! I will|trust! May I|close to Thee a-|
 [Dd]4 [Dd][Ec] | [FB]3 [FB] [=Fc][FB] | [Ee]4 [DF][EG] | [FA]3 [Fd] [^Ec][EB] | [FA]4 [DF][DG] | %15
w: laid; All my|debt He free- ly|paid; He my|peace with God has|made; I will|
w: case, Trust- ing|ful- ly in Thy|grace; All my|hope in Thee I|place; I will|
w: bide, Ev- er|keep- ing near Thy|side, There from|ev- ery storm to|hide: I will|
 E4 [CE][CF] | !fermata!D4 ||[M:4/4]"^Refrain" [DF][EG] | [FA]6 [Fd][GB] | [FA]6 F[EG] | %20
w: trust! I will|trust!|I will|trust! I will|trust! And I|
w: trust! I will|trust!||||
w: trust! I will|trust!||||
 A3 [DA] ([DB][FA]) ([EG][DF]) | [CE]6 [DF][EG] | [FA]6 [FB][Fc] | [Fd]6 [Gd][Ge] | %24
w: will not be * a- *|fraid! I will|trust! I will|trust! And I|
w: ||||
w: ||||
 f2 d2 [Ge]3 [Fd] | [Fd]6 z2 |] %26
w: will not be a-|fraid!|
w: ||
w: ||
V:2
 x2 | x6 | x6 | (D2 B,2) x2 | D4 x2 | x6 | x6 | (D2 B,2) x2 | D4 x2 | x6 | x6 | x6 | x6 | x6 | x6 | %15
 (D2 B,2) x2 | D4 ||[M:4/4] x2 | x8 | x6 F x | (DEF) x5 | x8 | x8 | x8 | (AD) (EF) x4 | x8 |] %26
V:3
 [D,A,][D,A,] | [D,A,]3 [D,A,] [D,^G,][D,G,] | [D,A,]4 [D,A,][D,A,] | %3
w: ~ ~|~ ~ ~ ~|~ ~ ~|
 [B,,G,]2 [G,,B,]2 [A,,G,][A,,A,] | [D,F,]4 [D,A,][D,A,] | [D,A,]3 [D,A,] [D,^G,][D,G,] | %6
w: ~ ~ ~ ~|~ ~ ~|~ ~ ~ ~|
 [D,A,]4 [D,A,][D,B,] | [B,,G,]2 [G,,B,]2 [A,,G,][A,,A,] | [D,F,]4 E,2- | %9
w: ~ ~ ~|~ ~ ~ ~|~ ~|
 (E,E, A,)[C,A,] [E,^G,]A, | [F,A,]4 [F,A,][E,A,] | [D,A,]3 [D,A,] [D,^G,][D,G,] | %12
w: * * * ~ ~ ~|~ ~ ~|~ ~ ~ ~|
 A,4 [F,A,][E,A,] | [D,A,]3 [D,A,] [D,^G,][D,G,] | [D,A,]4 [D,A,][D,A,] | %15
w: ~ ~ ~|~ ~ ~ ~|~ ~ ~|
 ([B,,G,]2 [G,,B,]2) [A,,G,][A,,A,] | !fermata![D,F,]4 || z2 | z2 [D,A,][D,A,] [D,A,]2 z2 | %19
w: ~ * ~ ~|~||~ I will|
 z2 [D,A,][D,A,] [D,A,]2 [D,A,][D,G,] | (F,G, A,)[D,F,] G,2 [E,B,]2 | %21
w: trust! I will trust! ~|~ * * ~ ~ ~|
 C4- ([A,C][G,B,])[F,A,][E,A,] | [D,A,]2 [D,A,][D,A,] [D,D]2 [D,B,][F,^A,] | %23
w: ~ be * a- fraid!|~ ~ ~ I will trust!|
 B,2 B,[B,C] [B,D]2 [B,D][B,D] | [A,D]2 [A,D]2 [A,,C]3 [D,A,] | [D,A,]6 z2 |] %26
w: ~ ~ ~ I will trust!|||
V:4
 x2 | x6 | x6 | x6 | x6 | x6 | x6 | x6 | x4 A,,A,, | A,,3 x A, x | x6 | x6 | (C,3 G,) x2 | x6 | %14
 x6 | x6 | x4 || x2 | x8 | x8 | D,3 G,2 x3 | A,2 A,B, x4 | x8 | B,2 B, x5 | x8 | x8 |] %26

